resources/icons/16px/rect-height.svg

<svg width="16" height="16" viewBox="0 0 16 16" fill="none" xmlns="http://www.w3.org/2000/svg">
<path fill-rule="evenodd" clip-rule="evenodd" d="M3 15V1H13V15H3ZM3 16C2.44772 16 2 15.5523 2 15V1C2 0.447715 2.44772 0 3 0H13C13.5523 0 14 0.447715 14 1V15C14 15.5523 13.5523 16 13 16H3ZM8.70711 3.29289C8.31658 2.90237 7.68342 2.90237 7.29289 3.29289L5.29289 5.29289C4.90237 5.68342 4.90237 6.31658 5.29289 6.70711C5.68342 7.09763 6.31658 7.09763 6.70711 6.70711L8 5.41421L9.29289 6.70711C9.68342 7.09763 10.3166 7.09763 10.7071 6.70711C11.0976 6.31658 11.0976 5.68342 10.7071 5.29289L8.70711 3.29289ZM6.70711 9.29289C6.31658 8.90237 5.68342 8.90237 5.29289 9.29289C4.90237 9.68342 4.90237 10.3166 5.29289 10.7071L7.29289 12.7071C7.48043 12.8946 7.73478 13 8 13C8.26522 13 8.51957 12.8946 8.70711 12.7071L10.7071 10.7071C11.0976 10.3166 11.0976 9.68342 10.7071 9.29289C10.3166 8.90237 9.68342 8.90237 9.29289 9.29289L8 10.5858L6.70711 9.29289Z" fill="black"/>
</svg>

<svg xmlns="http://www.w3.org/2000/svg" viewBox="0 0 16 16">
  <path d="M3 15V1h10v14zm0 1a1 1 0 0 1-1-1V1a1 1 0 0 1 1-1h10a1 1 0 0 1 1 1v14a1 1 0 0 1-1 1zM8.707 3.293a1 1 0 0 0-1.414 0l-2 2a1 1 0 0 0 1.414 1.414L8 5.414l1.293 1.293a1 1 0 0 0 1.414-1.414zm-2 6a1 1 0 0 0-1.414 1.414l2 2a1 1 0 0 0 1.414 0l2-2a1 1 0 0 0-1.414-1.414L8 10.586z"/>
</svg>
